X: 10
T: Boda Valsen
O: Swedish Traditional
M: 3/4
L: 1/8
K: G
|:\
"Em"B3 c BA | B3 c BA | B4 e2 | B3 d ef |\
"Em"g4 g2 | "D"f4 e2 | "Bm"f3 g f2 | "B7"B6 |
"C"e4 e2 | "D"d3 c Bc | "G"B4 "D"A2 | "Em"G3 F GA |\
B3 A Bc | "D(Bm)"A3 G F2 | "Em"E6- | E6 :|
|:\
"C"e4 e2 | g3 f e2 | "G"d6 | B6 |\
"D"A3 B c2 | c3 B A2 | "G"B4 c2 | "(G7)"d6 |
"C"e4 e2 | g3 f e2 | "G"d6 | "Em"B6 "^I"|\
"D"A3 B c2 | D2 E2 F2 | "G"G3 A GF | G6 :|


